build/img/css.svg

<svg width="64" height="64" viewBox="0 0 32 32" fill="none" xmlns="http://www.w3.org/2000/svg">
<path d="M5.90201 27.201L3.65601 2H28.344L26.095 27.197L15.985 30L5.90201 27.201Z" fill="#1572B6"/>
<path d="M16 27.858L24.17 25.593L26.092 4.06097H16V27.858Z" fill="#33A9DC"/>
<path d="M16 13.191H20.09L20.372 10.026H16V6.935H23.75L23.676 7.764L22.917 16.282H16V13.191Z" fill="white"/>
<path d="M16.019 21.218L16.005 21.222L12.563 20.292L12.343 17.827H9.24001L9.67301 22.68L16.004 24.438L16.019 24.434V21.218Z" fill="#EBEBEB"/>
<path d="M19.827 16.151L19.455 20.29L16.008 21.22V24.436L22.344 22.68L22.391 22.158L22.928 16.151H19.827Z" fill="white"/>
<path d="M16.011 6.935V10.026H8.54501L8.48301 9.331L8.34201 7.764L8.26801 6.935H16.011ZM16 13.191V16.282H12.601L12.539 15.587L12.399 14.02L12.325 13.191H16Z" fill="#EBEBEB"/>
</svg>

<svg width="64" height="64" viewBox="0 0 32 32" fill="none" xmlns="http://www.w3.org/2000/svg"><path d="M5.902 27.201L3.656 2h24.688l-2.249 25.197L15.985 30 5.902 27.201z" fill="#1572B6"/><path d="M16 27.858l8.17-2.265 1.922-21.532H16v23.797z" fill="#33A9DC"/><path d="M16 13.191h4.09l.282-3.165H16V6.935h7.75l-.074.829-.759 8.518H16v-3.091z" fill="#fff"/><path d="M16.019 21.218l-.014.004-3.442-.93-.22-2.465H9.24l.433 4.853 6.331 1.758.015-.004v-3.216z" fill="#EBEBEB"/><path d="M19.827 16.151l-.372 4.139-3.447.93v3.216l6.336-1.756.047-.522.537-6.007h-3.101z" fill="#fff"/><path d="M16.011 6.935v3.091H8.545l-.062-.695-.141-1.567-.074-.829h7.743zM16 13.191v3.091h-3.399l-.062-.695-.14-1.567-.074-.829H16z" fill="#EBEBEB"/></svg>
